X: 34
T:MARCHE OCEANE
M:2/4
L:1/4
Q:1/4=40
C:Yves BELOTTEAU
K:G
|:B3/2A/2|G/2B/2A/2G/2|d2 d B/2c/2|d/2B/2d/2g/2|gf a3/2g/2
|1fd e d/2c/2|B/2d/2A/2G/2:|2f/2a/2g/2f/2|g4|!
|:b3/2g/2|d3/2B/2|cA|1a2|c'3/2a/2 f z/2d/2|e z/2^c/2|d2:|
2a3/2g/2|fac'f|[gd][bc][g2B2]|
